dhis-2/dhis-support/dhis-support-system/src/main/resources/SVGs/implant_outline.svg

<svg width="48" height="48" viewBox="0 0 48 48" fill="none" xmlns="http://www.w3.org/2000/svg">
<path fill-rule="evenodd" clip-rule="evenodd" d="M23.9996 6.19732C23.5476 6.19732 23.1836 6.56162 23.1836 7.01371V40.9833C23.1836 41.4353 23.5476 41.8003 23.9996 41.8003C24.4516 41.8003 24.8156 41.4353 24.8156 40.9833V7.01371C24.8156 6.56132 24.4516 6.19702 23.9996 6.19702V6.19732ZM23.9996 6.72661C24.1666 6.72661 24.3006 6.86071 24.3006 7.02731V41.0269C24.3006 41.1939 24.1666 41.3279 23.9996 41.3279C23.8326 41.3279 23.6986 41.1939 23.6986 41.0269V7.02731C23.6986 6.86101 23.8326 6.72691 23.9996 6.72691V6.72661Z" fill="#333333"/>
</svg>

<?xml version="1.0" encoding="UTF-8" standalone="no"?>
<!-- Created with Inkscape (http://www.inkscape.org/) -->
<svg id="svg8" xmlns:rdf="http://www.w3.org/1999/02/22-rdf-syntax-ns#" xmlns="http://www.w3.org/2000/svg" xmlns:osb="http://www.openswatchbook.org/uri/2009/osb" height="48" width="48" version="1.1" xmlns:cc="http://creativecommons.org/ns#" viewBox="0 0 12.7 12.7" xmlns:dc="http://purl.org/dc/elements/1.1/">
 <title id="title4753">UIO-icon</title>
 <metadata id="metadata5">
  <rdf:RDF>
   <cc:Work rdf:about="">
    <dc:format>image/svg+xml</dc:format>
    <dc:type rdf:resource="http://purl.org/dc/dcmitype/StillImage"/>
    <dc:title>UIO-icon</dc:title>
    <dc:creator>
     <cc:Agent>
      <dc:title>Joaquín Urbano</dc:title>
     </cc:Agent>
    </dc:creator>
    <dc:rights>
     <cc:Agent>
      <dc:title>GPL</dc:title>
     </cc:Agent>
    </dc:rights>
   </cc:Work>
  </rdf:RDF>
 </metadata>
 <g id="layer1" transform="translate(0,-284.3)" fill="#333">
  <path id="rect878" d="m24 6.1973c-0.452 0-0.816 0.3643-0.816 0.8164v33.97c0 0.452 0.364 0.817 0.816 0.817s0.816-0.365 0.816-0.817v-33.97c0-0.4524-0.364-0.8167-0.816-0.8167zm0 0.5293c0.167 0 0.301 0.1341 0.301 0.3007v34c0 0.167-0.134 0.301-0.301 0.301s-0.301-0.134-0.301-0.301v-34c0-0.1663 0.134-0.3004 0.301-0.3004z" fill-rule="evenodd" transform="matrix(.26458 0 0 .26458 0 284.3)"/>
 </g>
</svg>
